share/icons/Flat-Remix-Blue-Dark/apps/scalable/darktable.svg

<?xml version="1.0" encoding="UTF-8" standalone="no"?>
<svg
   xmlns:dc="http://purl.org/dc/elements/1.1/"
   xmlns:cc="http://creativecommons.org/ns#"
   xmlns:rdf="http://www.w3.org/1999/02/22-rdf-syntax-ns#"
   xmlns:svg="http://www.w3.org/2000/svg"
   xmlns="http://www.w3.org/2000/svg"
   xmlns:sodipodi="http://sodipodi.sourceforge.net/DTD/sodipodi-0.dtd"
   xmlns:inkscape="http://www.inkscape.org/namespaces/inkscape"
   width="512"
   height="512"
   version="1.1"
   viewBox="0 0 384 384"
   id="svg49"
   sodipodi:docname="darktable.svg"
   inkscape:version="0.92.4 5da689c313, 2019-01-14">
  <metadata
     id="metadata53">
    <rdf:RDF>
      <cc:Work
         rdf:about="">
        <dc:format>image/svg+xml</dc:format>
        <dc:type
           rdf:resource="http://purl.org/dc/dcmitype/StillImage" />
        <dc:title></dc:title>
      </cc:Work>
    </rdf:RDF>
  </metadata>
  <sodipodi:namedview
     pagecolor="#ffffff"
     bordercolor="#666666"
     borderopacity="1"
     objecttolerance="10"
     gridtolerance="10"
     guidetolerance="10"
     inkscape:pageopacity="0"
     inkscape:pageshadow="2"
     inkscape:window-width="1720"
     inkscape:window-height="1382"
     id="namedview51"
     showgrid="false"
     inkscape:zoom="0.921875"
     inkscape:cx="1.9840432"
     inkscape:cy="299.40732"
     inkscape:window-x="1080"
     inkscape:window-y="315"
     inkscape:window-maximized="0"
     inkscape:current-layer="svg49" />
  <defs
     id="defs27">
    <filter
       id="alpha"
       width="100%"
       height="100%"
       x="0%"
       y="0%"
       filterUnits="objectBoundingBox">
      <feColorMatrix
         in="SourceGraphic"
         type="matrix"
         values="0 0 0 0 1 0 0 0 0 1 0 0 0 0 1 0 0 0 1 0"
         id="feColorMatrix2" />
    </filter>
    <mask
       id="mask0">
      <g
         filter="url(#alpha)"
         id="g7">
        <rect
           width="384"
           height="384"
           x="0"
           y="0"
           style="fill:rgb(0%,0%,0%);fill-opacity:0.2"
           id="rect5" />
      </g>
    </mask>
    <clipPath
       id="clip1">
      <rect
         width="384"
         height="384"
         x="0"
         y="0"
         id="rect10" />
    </clipPath>
    <g
       id="surface5"
       clip-path="url(#clip1)">
      <path
         style="fill:rgb(100.000%,100.000%,100.000%)"
         d="M 194.425781 32.015625 C 148.894531 32.601562 104.585938 52.152344 73.886719 87.390625 L 77.46875 91.503906 C 107.976562 58.742188 150.617188 40.578125 194.421875 40.015625 C 196.453125 39.988281 198.492188 40.058594 200.523438 40.109375 L 203.539062 32.15625 C 200.5 32.027344 197.453125 31.976562 194.421875 32.015625 Z M 224.832031 38.84375 L 186.246094 147.148438 L 189.28125 146.636719 L 224.832031 46.84375 C 271.335938 55.46875 310.808594 83.773438 334.046875 122.621094 L 338.183594 121.933594 C 315.6875 79.324219 274.214844 48.003906 224.832031 38.84375 Z M 57.359375 102.214844 C 40.074219 128.976562 31.3125 160.335938 32.109375 192.015625 C 32.859375 163.089844 41.53125 134.71875 57.359375 110.214844 L 149.671875 220.425781 L 155.472656 219.34375 Z M 342.9375 143.457031 L 228.527344 164.65625 L 234.328125 171.574219 L 342.9375 151.457031 C 348.59375 167.328125 351.480469 183.695312 351.886719 199.984375 C 352.375 181.078125 349.519531 161.9375 342.9375 143.457031 Z M 234.28125 209.527344 L 180.457031 351.839844 C 181.457031 351.886719 182.464844 351.863281 183.472656 351.886719 L 234.28125 217.527344 L 306.527344 300.496094 C 307.726562 299.207031 308.945312 297.945312 310.113281 296.609375 Z M 197.753906 236.855469 L 45.816406 262.0625 C 47.121094 264.535156 48.503906 266.976562 49.9375 269.375 L 194.722656 245.359375 Z M 197.753906 236.855469"
         id="path13" />
    </g>
    <mask
       id="mask1">
      <g
         filter="url(#alpha)"
         id="g18">
        <rect
           width="384"
           height="384"
           x="0"
           y="0"
           style="fill:rgb(0%,0%,0%);fill-opacity:0.2"
           id="rect16" />
      </g>
    </mask>
    <clipPath
       id="clip2">
      <rect
         width="384"
         height="384"
         x="0"
         y="0"
         id="rect21" />
    </clipPath>
    <g
       id="surface8"
       clip-path="url(#clip2)">
      <path
         style="fill:rgb(0%,0%,0%)"
         d="M 200.527344 40.121094 L 149.71875 174.480469 L 77.46875 91.511719 C 76.269531 92.800781 75.054688 94.066406 73.890625 95.402344 L 149.71875 182.480469 L 203.542969 40.160156 C 202.542969 40.121094 201.535156 40.144531 200.527344 40.117188 Z M 334.0625 122.632812 L 189.28125 146.648438 L 186.246094 155.152344 L 338.183594 129.945312 C 336.878906 127.472656 335.496094 125.03125 334.0625 122.632812 Z M 234.328125 171.585938 L 228.527344 172.664062 L 326.640625 289.792969 C 343.929688 263.03125 352.6875 231.671875 351.886719 199.992188 C 351.144531 228.929688 342.472656 257.28125 326.640625 281.792969 Z M 32.113281 192.023438 C 31.625 210.929688 34.484375 230.074219 41.066406 248.554688 L 155.472656 227.351562 L 149.671875 220.433594 L 41.066406 240.554688 C 35.410156 224.679688 32.519531 208.3125 32.109375 192.023438 Z M 197.753906 244.863281 L 194.71875 245.367188 L 159.167969 345.167969 C 112.65625 336.535156 73.175781 308.242188 49.9375 269.386719 L 45.8125 270.074219 C 68.316406 312.679688 109.785156 344 159.164062 353.167969 L 197.75 244.863281 Z M 306.527344 300.503906 C 274.609375 334.785156 229.390625 353.023438 183.472656 351.898438 L 180.457031 359.847656 C 229.128906 361.945312 277.367188 342.207031 310.113281 304.617188 Z M 306.527344 300.503906"
         id="path24" />
    </g>
  </defs>
  <path
     inkscape:connector-curvature="0"
     id="path29"
     d="M 336,192 C 336,271.52734 271.52734,336 192,336 112.47266,336 48,271.52734 48,192 48,112.47266 112.47266,48 192,48 c 79.52734,0 144,64.47266 144,144 z m 0,0"
     style="fill:#0f2b5c" />
  <path
     style="fill:#000000;stroke-width:0.99999994;fill-opacity:1;opacity:0.3"
     d="M 194.42334,39.515139 C 148.8947,40.099749 104.594,59.653809 73.894533,94.890624 L 149.71777,181.97998 203.54199,39.652832 c -3.04248,-0.130613 -6.08341,-0.17667 -9.11865,-0.137693 z M 224.83203,46.351562 186.24512,154.63721 338.1831,129.4375 C 315.67919,86.828132 274.22265,55.515624 224.83203,46.351562 Z M 57.366701,109.71484 c -26.179695,40.51953 -32.95362,91.57813 -16.30518,138.32813 L 155.45996,226.84375 Z m 285.569819,41.24268 -114.40136,21.19922 98.10498,117.1289 c 26.17579,-40.51952 32.94921,-91.5664 16.30078,-138.32812 z m -108.65625,66.06152 -53.82422,142.32862 c 48.67578,2.08984 96.91016,-17.65234 129.65625,-55.24219 l -0.007,0.004 z m -36.52734,27.34424 -151.936522,25.19971 c 22.5039,42.60935 63.960442,73.92138 113.351072,83.08154 v 0.007 z"
     id="path31-4"
     inkscape:connector-curvature="0" />
  <path
     inkscape:connector-curvature="0"
     id="path31"
     d="M 224.83203,38.851562 186.24609,147.13672 338.18359,121.9375 C 315.67969,79.328125 274.22266,48.015625 224.83203,38.851562 Z m 0,0"
     style="fill:#fd7d00" />
  <path
     inkscape:connector-curvature="0"
     id="path33"
     d="m 342.9375,143.45703 -114.40234,21.19922 98.10546,117.12891 c 26.17579,-40.51954 32.94922,-91.56641 16.30079,-138.32813 z m 0,0"
     style="fill:#ffc72e" />
  <path
     inkscape:connector-curvature="0"
     id="path35"
     d="m 310.10547,296.60937 -75.82422,-87.08984 -53.82422,142.32813 c 48.67578,2.08984 96.91016,-17.65235 129.65625,-55.24219 z m 0,0"
     style="fill:#0aa15c" />
  <path
     inkscape:connector-curvature="0"
     id="path37"
     d="M 159.16797,345.15234 197.75391,236.86328 45.816406,262.0625 c 22.503906,42.60937 63.960934,73.92187 113.351564,83.08203 z m 0,0"
     style="fill:#3a8ab8" />
  <path
     inkscape:connector-curvature="0"
     id="path39"
     d="M 41.0625,240.54297 155.46094,219.34375 57.367188,102.21484 C 31.1875,142.73437 24.414062,193.79297 41.0625,240.54297 Z m 0,0"
     style="fill:#8a3fab" />
  <path
     inkscape:connector-curvature="0"
     id="path41"
     d="M 73.894531,87.390625 149.71875,174.48047 203.54297,32.152344 C 154.86328,30.0625 106.64063,49.804688 73.894531,87.390625 Z m 0,0"
     style="fill:#d41717" />
  <path
     style="fill:#ffffff;stroke-width:1.33333325;fill-opacity:1;opacity:0.3"
     d="M 259.23828 42.685547 C 198.53343 43.465027 139.46582 69.537118 98.533203 116.51953 L 102.96289 121.60742 C 143.66442 77.728193 200.68708 53.437373 259.23828 52.685547 C 262.0413 52.649552 264.84779 52.689145 267.65625 52.761719 L 271.39648 42.869141 C 267.33984 42.694994 263.28527 42.633574 259.23828 42.685547 z M 299.7832 51.800781 L 248.33398 196.18164 L 252.12109 195.55273 L 299.7832 61.800781 C 362.04652 73.353276 414.83811 111.31463 445.77148 163.43555 L 450.91797 162.58203 C 420.91276 105.76955 365.63736 64.019528 299.7832 51.800781 z M 76.496094 136.28516 C 53.443949 171.96404 41.684624 213.77182 42.744141 256.00586 C 43.626648 217.20437 55.265701 179.14441 76.496094 146.28516 L 200.03711 293.80078 L 207.28711 292.45703 L 76.496094 136.28516 z M 457.25586 191.27539 L 304.7207 219.54102 L 311.9707 228.19727 L 457.25586 201.27539 L 457.26172 201.27539 C 464.80077 222.45088 468.7269 244.286 469.27148 266.00586 C 469.84028 241.01005 465.95929 215.70491 457.26172 191.27539 L 457.25586 191.27539 z M 312.38086 279.35742 L 240.61523 469.12891 C 241.86247 469.18246 243.10881 469.20424 244.35547 469.23633 L 312.38086 289.35742 L 409.05469 400.39648 C 410.55394 398.78019 412.03605 397.14194 413.49023 395.47266 L 413.48047 395.47852 L 312.38086 279.35742 z M 263.67773 315.81641 L 61.095703 349.41602 C 62.731502 352.51327 64.456604 355.55713 66.240234 358.5625 L 259.89062 326.44531 L 263.67773 315.81641 z "
     transform="scale(0.75)"
     id="path31-4-6" />
</svg>

<svg width="512" height="512" version="1.1" viewBox="0 0 384 384" xmlns="http://www.w3.org/2000/svg"><defs><clipPath><rect width="384" height="384"/></clipPath><clipPath><rect width="384" height="384"/></clipPath></defs><path d="m336 192c0 79.527-64.473 144-144 144s-144-64.473-144-144 64.473-144 144-144 144 64.473 144 144z" fill="#0f2751"/><path transform="scale(.75)" d="m256 64c-106.04 0-192 85.964-192 192 0 1.6719 0.021968 3.3383 0.064453 5 2.652-103.73 87.571-187 191.94-187s189.28 83.275 191.94 187c0.04248-1.6617 0.06445-3.3281 0.06445-5 0-106.04-85.964-192-192-192z" fill="#fff" opacity=".1" stroke-width="1.3333"/><path transform="scale(.75)" d="m64.064 251c-0.042485 1.6617-0.064453 3.3281-0.064453 5 0 106.04 85.964 192 192 192s192-85.964 192-192c0-1.6719-0.02197-3.3383-0.06445-5-2.652 103.73-87.571 187-191.94 187s-189.28-83.275-191.94-187z" opacity=".3" stroke-width="1.3333"/><path d="m194.42 39.516c-45.529 0.58461-89.831 20.139-120.53 55.375l75.825 87.089 53.824-142.33c-3.0425-0.13062-6.0834-0.1752-9.1186-0.13623zm30.407 6.8364-38.585 108.28 151.94-25.198c-22.504-42.609-63.962-73.922-113.35-83.086zm-167.46 63.363c-26.18 40.52-32.954 91.578-16.305 138.33l114.4-21.199zm285.57 41.241-114.4 21.199 98.106 117.13c26.176-40.52 32.949-91.566 16.301-138.33zm-108.66 66.063-53.824 142.33c48.676 2.0898 96.91-17.652 129.66-55.242l-7e-3 3e-3zm-36.527 27.344-151.94 25.198c22.504 42.609 63.962 73.923 113.35 83.083v7e-3z" opacity=".3"/><path d="m224.83 38.852-38.586 108.29 151.94-25.199c-22.504-42.609-63.961-73.922-113.35-83.086z" fill="#fd7d00"/><path d="m342.94 143.46-114.4 21.199 98.105 117.13c26.176-40.52 32.949-91.566 16.301-138.33z" fill="#ffc730"/><path d="m310.11 296.61-75.824-87.09-53.824 142.33c48.676 2.0898 96.91-17.652 129.66-55.242z" fill="#0ca15e"/><path d="m159.17 345.15 38.586-108.29-151.94 25.199c22.504 42.609 63.961 73.922 113.35 83.082z" fill="#367bf0"/><path d="m41.062 240.54 114.4-21.199-98.094-117.13c-26.18 40.52-32.953 91.578-16.305 138.33z" fill="#8c42ab"/><path d="m73.895 87.391 75.824 87.09 53.824-142.33c-48.68-2.0898-96.902 17.652-129.65 55.238z" fill="#fd3535"/><path transform="scale(.75)" d="m259.23 42.688c-60.705 0.77948-119.77 26.852-160.71 73.834l4.4297 5.0879c40.702-43.88 97.725-68.17 156.28-68.922 2.8026-0.035987 5.6099 0.002247 8.418 0.074219l3.7402-9.8926c-4.0566-0.17415-8.1112-0.23361-12.158-0.18164zm40.543 9.1152-51.447 144.38 3.7871-0.62891 47.66-133.75c62.264 11.553 115.06 49.513 145.99 101.63l5.1445-0.85352c-30.005-56.812-85.283-98.562-151.14-110.78zm-223.29 84.484c-23.051 35.677-34.808 77.483-33.75 119.71 0.88337-38.8 12.52-76.857 33.75-109.71l123.54 147.52 7.25-1.3438-130.79-156.17zm380.76 54.988-152.54 28.266 7.25 8.6562 145.29-26.922h0.00586c7.539 21.175 11.465 43.011 12.01 64.73 0.5688-24.996-3.3122-50.301-12.01-74.73h-0.00586zm-144.88 88.084-71.766 189.77c1.2472 0.05355 2.4936 0.07534 3.7402 0.10742l68.025-179.88 96.676 111.04c1.4992-1.6163 2.9794-3.2546 4.4336-4.9238l-0.00977 0.00391-101.1-116.12zm-48.703 36.459-202.58 33.598c1.6359 3.0974 3.3608 6.141 5.1445 9.1465l193.65-32.115 3.7871-10.629z" fill="#fff" opacity=".2" stroke-width="1.3333"/></svg>
